X:1
T:Yankee Doodle
F:/songs
B:Agay, Denes, Best Loved Songs of the American People, 1975, Doubleday
M:2/4
L:1/16
K:G
(D2 |.{EF}G2).G2.A2.B2 |.G2.B2.A2.D2 |.{EF}G2.G2.A2.B2 | (G4 .F2)
w: *Fath'r and I went down to camp, A-long with Cap-tain Good-in',
.D2 |.{EF}G2.G2.A2.B2 |.c2.B2.A2.G2 |.E2.D2.E2.F2 | !tenuto!G4 .G2 z2 |
w: And there we saw the men and boys as thick as has-ty pud-din'
([E3C3]F.E2).D2 | .[E2C2].F2 !tenuto![G4E4] |(D3E.D2).C2 | (B,2C2) .[D2B,2] z2 |
w: Yan-kee Doo-dle keep it up, Yan-kee Doo-dle Dan-*dy,
([E3C3]F.E2).D2 |.[E2C2].F2.G2.E2 |.D2.G2.F2.A2 | !tenuto!G4 .G2 z2 |]
w:Mind the mu-sic and the step And with the girls be han-dy
Contact us
suse.folkinfo.org
